Logos/sevcosecurity.svg

<svg xmlns="http://www.w3.org/2000/svg" width="400" height="166.516" xmlns:v="https://vecta.io/nano"><path d="M103.32 10.043c.127.35 2.058 4.992 4.292 10.316l4.062 9.68 22.298.003 22.297.003 21.696 51.674 22.047 51.494c.192-.1 2.718-6.208 5.612-13.575s12.489-30.538 21.321-51.493l16.057-38.1 23.205-.005 23.205-.005 4.053-9.689 4.293-10.313c.226-.59-1.695-.62-33.904-.533l-34.143.093-14.661 35.062-14.956 34.389c-.162-.37-6.696-16.148-14.518-35.062L171.353 9.593 137.221 9.5c-32.414-.087-34.121-.06-33.901.543M38.009 41.646c-14.351 1.776-23.167 10.046-23.167 21.73 0 11.459 5.418 15.967 24.518 20.399 7.817 1.814 10.037 2.64 10.639 3.96 2.737 6.007-14.636 5.827-26.757-.276l-2.486-1.253-3.5 7.903c-1.925 4.346-3.5 8.057-3.5 8.247 0 1.116 9.898 4.649 16.023 5.719 22.927 4.006 40.184-3.343 42.231-17.984 1.714-12.257-4.789-18.916-22.055-22.585-10.668-2.267-12.59-2.947-13.201-4.669-1.9-5.351 11.224-6.078 22.572-1.251 1.869.795 3.511 1.313 3.65 1.152.408-.478 6.643-15.685 6.487-15.825-3.974-3.572-21.47-6.502-31.454-5.267m233.267.148c-36.101 5.608-40.202 55.538-5.394 65.66 15.117 4.396 33.517-.318 40.718-10.431l.727-1.022-6.424-5.738-6.986-6.175c-.469-.366-.957-.059-2.976 1.873-11.035 10.557-26.718 4.224-26.682-10.775.036-15.053 15.673-21.207 26.782-10.54l2.353 2.259 6.696-5.967 7.018-6.28c.796-.776-5.431-6.476-9.648-8.83-6.772-3.781-17.337-5.408-26.184-4.034m76.416-.29c-21.302 2.53-34.699 19.667-31.169 39.874 6.023 34.485 60.295 37.953 71.108 4.544 8.01-24.746-12.597-47.664-39.939-44.418M93.394 75.113v32.398h26.968 26.968v-8.325-8.326h-16.108-16.109v-3.982-3.982h13.575 13.574v-8.145-8.145h-13.574-13.575v-3.62-3.619h15.566 15.565v-8.326-8.326h-26.425-26.425v32.398m263.728-15.047c14.803 5.203 12.143 29.401-3.411 31.027-9.75 1.019-17.315-9.197-14.89-20.106 1.912-8.597 10.438-13.684 18.301-10.921M20.083 133.865c-3.994 1.381-5.808 3.879-5.537 7.627s1.981 5.132 8.252 6.666c3.503.858 4.743 1.698 3.627 2.459-.906.619-5.068.151-7.535-.848l-2.286-.926-1.255 2.753c-1.547 3.394-1.516 3.475 1.738 4.497 9.334 2.933 17.664-.268 17.664-6.789 0-3.848-2.014-5.763-7.24-6.882-5.054-1.083-5.768-1.486-4.633-2.621.672-.672 4.055-.514 6.168.289 2.633 1.001 2.571 1.033 3.747-1.895l1.154-2.836c.127-.274-2.183-1.274-4.083-1.767-2.304-.597-7.7-.447-9.781.273m43.627 11.293v11.946h9.955 9.955v-3.258-3.258h-5.973-5.973v-1.267-1.267h5.068 5.068v-3.077-3.077h-5.068-5.068v-1.267-1.266h5.792 5.792v-3.077-3.077h-9.774-9.774v11.945m56.79-11.446c-10.127 3.62-10.821 17.938-1.087 22.437 3.805 1.759 10.445.771 12.872-1.915l.701-.776-2.467-2.487-2.468-2.487-1.13.689c-4.429 2.701-9.348-2.7-6.338-6.96 1.451-2.053 5.441-2.538 6.857-.833.472.57 5.423-3.754 5.403-4.719-.048-2.293-8.515-4.316-12.343-2.949m40.289 7.374c.115 7.774.129 7.899 1.126 9.93 4.002 8.149 15.621 8.11 19.864-.066.799-1.54.852-2.069.961-9.683l.115-8.054h-3.645-3.644v7.212 7.212l-1.114 1.113c-1.613 1.613-3.571 1.57-5.257-.117l-1.231-1.23v-7.095-7.095h-3.645-3.646l.116 7.873m56.406 4.072v11.946h3.619 3.62v-1.991-1.991h2.097 2.096l.977 1.991.976 1.991h3.986c2.192 0 3.986-.085 3.986-.188s-.743-1.668-1.651-3.476c-1.488-2.963-1.598-3.348-1.106-3.891 2.863-3.164 2.726-9.557-.279-12.971-2.596-2.949-4.02-3.358-11.715-3.362l-6.606-.003v11.945m57.194 0v11.946h3.439 3.439v-11.946-11.945h-3.439-3.439v11.945m44.163-8.506v3.438h2.896 2.896v8.507 8.507h3.439 3.439v-8.507-8.507h2.896 2.896v-3.438-3.439h-9.231-9.231v3.439m47.529-3.168l4.003 7.362 3.853 7.091v4.583 4.584h3.62 3.619v-4.419-4.419l3.982-7.319 3.982-7.538c0-.121-1.827-.174-4.059-.118l-4.06.103-1.687 3.206-1.687 3.206-1.739-3.297-1.738-3.296h-4.12c-2.266 0-4.052.122-3.969.271m-136.941 7.075c3.431 1.735 1.739 5.323-2.51 5.323h-2.196v-2.896-2.896l1.901.006c1.045.003 2.308.211 2.805.463" fill="red" fill-rule="evenodd"/></svg>

<svg xmlns="http://www.w3.org/2000/svg" width="400" height="166.5158371040724" viewBox="0, 0, 400,166.5158371040724" version="1.1"><g><path d="M103.320 10.043 C 103.447 10.393,105.378 15.035,107.612 20.359 L 111.674 30.039 133.972 30.042 L 156.269 30.045 177.965 81.719 C 189.898 110.140,199.819 133.312,200.012 133.213 C 200.204 133.113,202.730 127.005,205.624 119.638 C 208.519 112.271,218.113 89.100,226.945 68.145 L 243.002 30.045 266.207 30.040 L 289.412 30.035 293.465 20.346 C 295.694 15.017,297.626 10.376,297.758 10.033 C 297.984 9.443,296.063 9.413,263.854 9.500 L 229.711 9.593 215.050 44.655 C 204.128 70.776,200.315 79.546,200.094 79.044 C 199.932 78.674,193.398 62.896,185.576 43.982 L 171.353 9.593 137.221 9.500 C 104.807 9.413,103.100 9.440,103.320 10.043 M38.009 41.646 C 23.658 43.422,14.842 51.692,14.842 63.376 C 14.842 74.835,20.260 79.343,39.360 83.775 C 47.177 85.589,49.397 86.415,49.999 87.735 C 52.736 93.742,35.363 93.562,23.242 87.459 L 20.756 86.206 17.256 94.109 C 15.331 98.455,13.756 102.166,13.756 102.356 C 13.756 103.472,23.654 107.005,29.779 108.075 C 52.706 112.081,69.963 104.732,72.010 90.091 C 73.724 77.834,67.221 71.175,49.955 67.506 C 39.287 65.239,37.365 64.559,36.754 62.837 C 34.854 57.486,47.978 56.759,59.326 61.586 C 61.195 62.381,62.837 62.899,62.976 62.738 C 63.384 62.260,69.619 47.053,69.463 46.913 C 65.489 43.341,47.993 40.411,38.009 41.646 M271.276 41.794 C 235.175 47.402,231.074 97.332,265.882 107.454 C 280.999 111.850,299.399 107.136,306.600 97.023 L 307.327 96.001 300.903 90.263 C 297.369 87.107,294.226 84.328,293.917 84.088 C 293.448 83.722,292.960 84.029,290.941 85.961 C 279.906 96.518,264.223 90.185,264.259 75.186 C 264.295 60.133,279.932 53.979,291.041 64.646 L 293.394 66.905 300.090 60.938 C 303.774 57.655,306.931 54.829,307.108 54.658 C 307.904 53.882,301.677 48.182,297.460 45.828 C 290.688 42.047,280.123 40.420,271.276 41.794 M347.692 41.504 C 326.390 44.034,312.993 61.171,316.523 81.378 C 322.546 115.863,376.818 119.331,387.631 85.922 C 395.641 61.176,375.034 38.258,347.692 41.504 M93.394 75.113 L 93.394 107.511 120.362 107.511 L 147.330 107.511 147.330 99.186 L 147.330 90.860 131.222 90.860 L 115.113 90.860 115.113 86.878 L 115.113 82.896 128.688 82.896 L 142.262 82.896 142.262 74.751 L 142.262 66.606 128.688 66.606 L 115.113 66.606 115.113 62.986 L 115.113 59.367 130.679 59.367 L 146.244 59.367 146.244 51.041 L 146.244 42.715 119.819 42.715 L 93.394 42.715 93.394 75.113 M357.122 60.066 C 371.925 65.269,369.265 89.467,353.711 91.093 C 343.961 92.112,336.396 81.896,338.821 70.987 C 340.733 62.390,349.259 57.303,357.122 60.066 M20.083 133.865 C 16.089 135.246,14.275 137.744,14.546 141.492 C 14.818 145.243,16.527 146.624,22.798 148.158 C 26.301 149.016,27.541 149.856,26.425 150.617 C 25.519 151.236,21.357 150.768,18.890 149.769 L 16.604 148.843 15.349 151.596 C 13.802 154.990,13.833 155.071,17.087 156.093 C 26.421 159.026,34.751 155.825,34.751 149.304 C 34.751 145.456,32.737 143.541,27.511 142.422 C 22.457 141.339,21.743 140.936,22.878 139.801 C 23.550 139.129,26.933 139.287,29.046 140.090 C 31.679 141.091,31.617 141.123,32.793 138.195 C 33.372 136.755,33.892 135.478,33.947 135.359 C 34.074 135.085,31.764 134.085,29.864 133.592 C 27.560 132.995,22.164 133.145,20.083 133.865 M63.710 145.158 L 63.710 157.104 73.665 157.104 L 83.620 157.104 83.620 153.846 L 83.620 150.588 77.647 150.588 L 71.674 150.588 71.674 149.321 L 71.674 148.054 76.742 148.054 L 81.810 148.054 81.810 144.977 L 81.810 141.900 76.742 141.900 L 71.674 141.900 71.674 140.633 L 71.674 139.367 77.466 139.367 L 83.258 139.367 83.258 136.290 L 83.258 133.213 73.484 133.213 L 63.710 133.213 63.710 145.158 M120.500 133.712 C 110.373 137.332,109.679 151.650,119.413 156.149 C 123.218 157.908,129.858 156.920,132.285 154.234 L 132.986 153.458 130.519 150.971 L 128.051 148.484 126.921 149.173 C 122.492 151.874,117.573 146.473,120.583 142.213 C 122.034 140.160,126.024 139.675,127.440 141.380 C 127.912 141.950,132.863 137.626,132.843 136.661 C 132.795 134.368,124.328 132.345,120.500 133.712 M160.789 141.086 C 160.904 148.860,160.918 148.985,161.915 151.016 C 165.917 159.165,177.536 159.126,181.779 150.950 C 182.578 149.410,182.631 148.881,182.740 141.267 L 182.855 133.213 179.210 133.213 L 175.566 133.213 175.566 140.425 L 175.566 147.637 174.452 148.750 C 172.839 150.363,170.881 150.320,169.195 148.633 L 167.964 147.403 167.964 140.308 L 167.964 133.213 164.319 133.213 L 160.673 133.213 160.789 141.086 M217.195 145.158 L 217.195 157.104 220.814 157.104 L 224.434 157.104 224.434 155.113 L 224.434 153.122 226.531 153.122 L 228.627 153.122 229.604 155.113 L 230.580 157.104 234.566 157.104 C 236.758 157.104,238.552 157.019,238.552 156.916 C 238.552 156.812,237.809 155.248,236.901 153.440 C 235.413 150.477,235.303 150.092,235.795 149.549 C 238.658 146.385,238.521 139.992,235.516 136.578 C 232.920 133.629,231.496 133.220,223.801 133.216 L 217.195 133.213 217.195 145.158 M274.389 145.158 L 274.389 157.104 277.828 157.104 L 281.267 157.104 281.267 145.158 L 281.267 133.213 277.828 133.213 L 274.389 133.213 274.389 145.158 M318.552 136.652 L 318.552 140.090 321.448 140.090 L 324.344 140.090 324.344 148.597 L 324.344 157.104 327.783 157.104 L 331.222 157.104 331.222 148.597 L 331.222 140.090 334.118 140.090 L 337.014 140.090 337.014 136.652 L 337.014 133.213 327.783 133.213 L 318.552 133.213 318.552 136.652 M366.081 133.484 C 366.164 133.633,367.965 136.946,370.084 140.846 L 373.937 147.937 373.937 152.520 L 373.937 157.104 377.557 157.104 L 381.176 157.104 381.176 152.685 L 381.176 148.266 385.158 140.947 C 387.348 136.922,389.140 133.530,389.140 133.409 C 389.140 133.288,387.313 133.235,385.081 133.291 L 381.021 133.394 379.334 136.600 L 377.647 139.806 375.908 136.509 L 374.170 133.213 370.050 133.213 C 367.784 133.213,365.998 133.335,366.081 133.484 M229.140 140.559 C 232.571 142.294,230.879 145.882,226.630 145.882 L 224.434 145.882 224.434 142.986 L 224.434 140.090 226.335 140.096 C 227.380 140.099,228.643 140.307,229.140 140.559 " stroke="none" fill="#ff0000" fill-rule="evenodd"></path></g></svg>
